X:1
T:Title
%%score { ( 1 4 ) | ( 2 3 ) }
L:1/8
M:4/4
K:Db
V:1 treble nm="Grand Piano"
V:4 treble 
V:2 bass 
V:3 bass 
V:1
 z4 z2[Q:1/4=100] [FA]>[EG] | F>G F>E D2 [CE]2 | [DF]2 [EG]2 [FA]2 [FA]>[FA] | B>c d>B A2 [Ad]2 | %4
[M:9/8] [=Ge]2 [Ge]- [Ge] e2- eA>A |[M:4/4] [FA]>[Af] [Af]>[Ge] [Fd]2 [Ad]>[Ac] | %6
 B>B d>B [FA]2 [FA]>[EG] | F>E D>F [FA]<[Fd] z2 | e2 c2 [Fd]4 | [CGA]2 [DGB]2 [CGA]2 z2 | %10
 z4 [DFA]2[K:bass] z2 | A>=G A>B c>_c =c>d |[M:9/8] e2 e- e e2- eA>A | %13
[M:4/4] [FA]>[Af] [Af]>[Ge] [Fd]2 [Ad]>[Ac] | B>B d>B [FA]2 [FA]>[EG] | F>E D>F [FA]<[Fd] z2 | %16
 e2 c2 [Fd]4 |] %17
V:2
 z4 z2 [D,A,]>[D,A,] | [D,A,D]>[D,B,D] [D,A,D]>[D,G,A,] [D,F,A,]2 [A,,A,]2 | %2
 [D,A,]2 [D,D]2 [D,D]2 [D,D]>[D,D] | [G,DG]>[G,CG] [G,B,G]>[G,DG] [F,D]2 [F,D]2 | %4
[M:9/8] [E,D]2 [E,D]- [E,D][K:treble] [A,CG]2- [A,CG][A,CG]>[A,CG] | %5
[M:4/4][K:bass] [D,D]>[D,D] [D,D]>[D,A,] [D,A,]2 [F,D]>[F,D] | %6
 [G,DG]>[G,DG] [G,B,G]>[G,DG] [D,D]2 [D,A,]>[D,A,] | %7
 [D,A,D]>[D,G,A,] [D,F,A,]>[D,A,D] [D,D]<[D,A,] z2 | [G,B,G]2 [A,G]2[K:bass] [D,A,]4 | %9
 A,,2 A,,2 z z/ A,/ (3G,F,E, | D,2 A,,2 D,2 z2 | %11
 [A,CE]>[A,B,E] [A,CE]>[A,DE] [A,EA]>[A,=DA] [A,EA]>[B,EA] | %12
[M:9/8] [CEA]2 [B,D=G]- [B,DG] [A,C_G]2- [A,CG][A,CG]>[A,CG] | %13
[M:4/4][K:bass] [D,D]>[D,D] [D,D]>[D,A,] [D,A,]2 [F,D]>[F,D] | %14
 [G,DG]>[G,DG] [G,B,G]>[G,DG] [D,D]2 [D,A,]>[D,A,] | %15
 [D,A,D]>[D,G,A,] [D,F,A,]>[D,A,D] [D,D]<[D,A,] z2 | [G,B,G]2 [A,G]2[K:bass] [D,A,]4 |] %17
V:3
 x8 | x8 | x8 | x8 |[M:9/8] x4[K:treble] x5 |[M:4/4][K:bass] x8 | x8 | x8 | x4[K:bass] x4 | %9
 z4 A,,2 z2 | x8 | x8 |[M:9/8] x9 |[M:4/4][K:bass] x8 | x8 | x8 | x4[K:bass] x4 |] %17
V:4
 x8 | x8 | x8 | x8 |[M:9/8] x9 |[M:4/4] x8 | x8 | x8 | x8 | x8 | %10
 [DFA]2 [DFB]2 z z/[K:bass] E,/ F,G, | x8 |[M:9/8] x9 |[M:4/4] x8 | x8 | x8 | x8 |] %17

